X: 3830
T: Black Frog, The
R: jig
M: 6/8
K: Dmajor
|:DDD DEF|EDB, DB,A,|DED DEF|ABA F2 A|
~d2 B AFE|FED B,DA,|DEF AFE|1 DED DFE:|2 DED DBA||
|:dfa gec|fdB ecA|GAB ABc|def ecA|
~a2 a agf|gag gfe|1 (3fga f edc|dAF DBc:|2 fdB ecA|dAF BGE||

